X: 19960
T: Jim Anderson's Delight
R: jig
M: 6/8
K: Gmajor
|:g/e/|dGG BAG|def gfg|eAA efg|agf gfe|
dGG BAG|def gfe|dcB cBA|BGG G2:|
|:e|d2 g B2 g|def gfg|eAA efg|agf gfe|
d2 g B2 g|def gfe|dcB cBA|BGG G2:|

